X: 524
P: Longways for as many as will
M: C|
L: 1/8
K: F
c2c2 B2A2 | d6 c2 | B2B2 A2G2 | F6 F2 | c2c2 B2A2 | d6 c2 | (de)f2 (ef)g2 | f6 |][| g2 a2f2 a2b2 |
c'6 f2 | e2(dc) d2=B2 | c6 f2 | d2B2 b2(a/g/f) | e2c2 c'2c2 | A2(GF) f2(ag) | f6 |]

